assets/flags/GR.svg

<svg width="21" height="15" xmlns="http://www.w3.org/2000/svg"><defs><linearGradient x1="50%" y1="0%" x2="50%" y2="100%" id="a"><stop stop-color="#FFF" offset="0%"/><stop stop-color="#F0F0F0" offset="100%"/></linearGradient><linearGradient x1="50%" y1="0%" x2="50%" y2="100%" id="b"><stop stop-color="#1C6DC1" offset="0%"/><stop stop-color="#1660AD" offset="100%"/></linearGradient></defs><g fill="none" fill-rule="evenodd"><path fill="url(#a)" d="M0 0h21v15H0z"/><path d="M0 0h4v4H0V0zm6 0h4v4H6V0zm4 0h11v2H10V0zm0 4h11v2H10V4zm0 4h11v2H10V8zM0 12h21v2H0v-2zm6-6h4v4H6V6zM0 6h4v4H0V6z" fill="url(#b)"/></g></svg>

<?xml version="1.0" encoding="UTF-8"?>
<svg width="21px" height="15px" viewBox="0 0 21 15" version="1.1" xmlns="http://www.w3.org/2000/svg" xmlns:xlink="http://www.w3.org/1999/xlink">
    <!-- Generator: sketchtool 46 (44423) - http://www.bohemiancoding.com/sketch -->
    <title>GR</title>
    <desc>Created with sketchtool.</desc>
    <defs>
        <linearGradient x1="50%" y1="0%" x2="50%" y2="100%" id="linearGradient-1">
            <stop stop-color="#FFFFFF" offset="0%"></stop>
            <stop stop-color="#F0F0F0" offset="100%"></stop>
        </linearGradient>
        <linearGradient x1="50%" y1="0%" x2="50%" y2="100%" id="linearGradient-2">
            <stop stop-color="#1C6DC1" offset="0%"></stop>
            <stop stop-color="#1660AD" offset="100%"></stop>
        </linearGradient>
    </defs>
    <g id="Symbols" stroke="none" stroke-width="1" fill="none" fill-rule="evenodd">
        <g id="GR">
            <rect id="FlagBackground" fill="url(#linearGradient-1)" x="0" y="0" width="21" height="15"></rect>
            <path d="M0,0 L4,0 L4,4 L0,4 L0,0 Z M6,0 L10,0 L10,4 L6,4 L6,0 Z M10,0 L21,0 L21,2 L10,2 L10,0 Z M10,4 L21,4 L21,6 L10,6 L10,4 Z M10,8 L21,8 L21,10 L10,10 L10,8 Z M0,12 L21,12 L21,14 L0,14 L0,12 Z M6,6 L10,6 L10,10 L6,10 L6,6 Z M0,6 L4,6 L4,10 L0,10 L0,6 Z" id="Rectangle-537" fill="url(#linearGradient-2)"></path>
        </g>
    </g>
</svg>
